cutejava-front/src/assets/icons/svg/loan.svg

<?xml version="1.0" standalone="no"?><!DOCTYPE svg PUBLIC "-//W3C//DTD SVG 1.1//EN" "http://www.w3.org/Graphics/SVG/1.1/DTD/svg11.dtd"><svg t="1608289453763" class="icon" viewBox="0 0 1024 1024" version="1.1" xmlns="http://www.w3.org/2000/svg" p-id="11729" xmlns:xlink="http://www.w3.org/1999/xlink" width="200" height="200"><defs><style type="text/css"></style></defs><path d="M300.137931 220.689655h176.551724v70.62069H300.137931zM300.137931 361.931034h317.793103v70.62069H300.137931zM759.172414 662.068966v-35.310345h-88.275862v35.310345h-105.931035v335.448275h353.103449v-335.448275h-158.896552z m97.103448 282.482758h-229.517241v-88.275862h229.517241v88.275862z m0-132.413793h-229.517241v-88.275862h229.517241v88.275862z" fill="#BDBCBC" p-id="11730"></path><path d="M450.206897 979.862069h-141.24138C197.031724 979.862069 105.931034 888.761379 105.931034 776.827586V26.482759h812.137932V476.689655h-88.275863V114.758621H194.206897V776.827586c0 63.205517 51.553103 114.758621 114.75862 114.758621h141.24138v88.275862z" fill="" p-id="11731"></path></svg>

<svg class="icon" viewBox="0 0 1024 1024" xmlns="http://www.w3.org/2000/svg" width="200" height="200"><defs><style/></defs><path d="M300.138 220.69H476.69v70.62H300.138zm0 141.241H617.93v70.62H300.138zm459.034 300.138v-35.31h-88.275v35.31H564.966v335.448h353.103V662.07H759.172zm97.104 282.483H626.759v-88.276h229.517v88.276zm0-132.414H626.759v-88.276h229.517v88.276z"/><path d="M450.207 979.862H308.966c-111.934 0-203.035-91.1-203.035-203.034V26.483h812.138V476.69h-88.276V114.759H194.207v662.069c0 63.205 51.553 114.758 114.759 114.758h141.24v88.276z"/></svg>
